X: 3
T: Dornoch Links
R: barndance
M: 4/4
L: 1/8
K: Dmaj
dB|AD DE F2ED|A2D2D2dB|AD DE F2ED|F2E2E2FG|
AD DE F2 ED|F2A2 d3B|A2AB AF (3EFG|F2D2D2:|
FA|d2 de dB Ad|B2 BA B2 dB|A2 AB AF DE|F2E2E2FA|
d2 de dB Ad|B2 BA B2 dB|A2 AB AF (3EFG|F2D2D2:|


Tune 1649	Setting 21316

